X:899
T:Farewell To Nigg
C:Joe Buchanan's Scottish Tome - Page 048.2
I:048 2
R:Waltz
Z:Carl Allison
L:1/8
M:3/4
K:Bmin
B>c d2 c>B|Ac B2-B2|d>e f2 d>e|fa f2-f2|
fa f2 B2|de c>B A2|ce f2 e>c|Ac B2-B2:|
d>e f2 f2|ae f2 B2|d>e f2 fa|f>e c2-c2|
ce f2 B2|de c>B A2|ce f2 e>c|Ac B2-B2:|
B>c d2 e2|cA B2-B2|d>e f2 d>e|fa f2-f2|
a>e f2 B2|de c>B A2|d>e f2 e>c|Ac B2-B2:|
d>e f2 fa|fe f2 B2|d>e f2 fa|f>e c2-c2|
ae f2 B2|de c>B A2|ce f2 e>c|Ac B2-B2:|
